report_00007_2020-12-11T15:55:29.892Z/total-byte-weight/samples/pages+cached+noexternal+nofonts+nosvg+noimg+nocss/raw/values.svg

<svg width="640" height="490" xmlns="http://www.w3.org/2000/svg" xmlns:xlink="http://www.w3.org/1999/xlink"><path fill="#fff" d="M0 0h640v490H0z"/><defs><path id="d" stroke-width=".222" stroke="currentColor" d="M-1-1h2v2h-2z"/><path id="b" stroke-width=".222" stroke="currentColor" d="M0-1.33l-1.33 2h2.66z"/><path id="f" stroke-width=".222" stroke="currentColor" d="M0 1.33L1.265.411.782-1.067l-1.564-.009-.483 1.487z"/><use xlink:href="#b" id="c" stroke="currentColor" transform="rotate(180)"/><use xlink:href="#d" id="e" stroke="currentColor" transform="rotate(45)"/><circle id="a" stroke-width=".222" stroke="currentColor" cx="0" cy="0" r="1"/></defs><g fill="none" color="#000" stroke="currentColor"><path stroke="#000" d="M70.5 410.3h9m535.5 0h-9"/><text transform="translate(62.2 414.2)" stroke="none" fill="#000" font-family="Arial" font-size="12" text-anchor="end"><tspan>61919</tspan></text></g><g fill="none" color="#000" stroke="currentColor"><path stroke="#000" d="M70.5 362.2h9m535.5 0h-9"/><text transform="translate(62.2 366.1)" stroke="none" fill="#000" font-family="Arial" font-size="12" text-anchor="end"><tspan>61920</tspan></text></g><g fill="none" color="#000" stroke="currentColor"><path stroke="#000" d="M70.5 314.2h9m535.5 0h-9"/><text transform="translate(62.2 318.1)" stroke="none" fill="#000" font-family="Arial" font-size="12" text-anchor="end"><tspan>61921</tspan></text></g><g fill="none" color="#000" stroke="currentColor"><path stroke="#000" d="M70.5 266.1h9m535.5 0h-9"/><text transform="translate(62.2 270)" stroke="none" fill="#000" font-family="Arial" font-size="12" text-anchor="end"><tspan>61922</tspan></text></g><g fill="none" color="#000" stroke="currentColor"><path stroke="#000" d="M70.5 218h9m535.5 0h-9"/><text transform="translate(62.2 221.9)" stroke="none" fill="#000" font-family="Arial" font-size="12" text-anchor="end"><tspan>61923</tspan></text></g><g fill="none" color="#000" stroke="currentColor"><path stroke="#000" d="M70.5 170h9m535.5 0h-9"/><text transform="translate(62.2 173.9)" stroke="none" fill="#000" font-family="Arial" font-size="12" text-anchor="end"><tspan>61924</tspan></text></g><g fill="none" color="#000" stroke="currentColor"><path stroke="#000" d="M70.5 121.9h9m535.5 0h-9"/><text transform="translate(62.2 125.8)" stroke="none" fill="#000" font-family="Arial" font-size="12" text-anchor="end"><tspan>61925</tspan></text></g><g fill="none" color="#000" stroke="currentColor"><path stroke="#000" d="M70.5 73.9h9m535.5 0h-9"/><text transform="translate(62.2 77.8)" stroke="none" fill="#000" font-family="Arial" font-size="12" text-anchor="end"><tspan>61926</tspan></text></g><g fill="none" color="#000" stroke="currentColor"><path stroke="#000" d="M70.5 25.8h9m535.5 0h-9"/><text transform="translate(62.2 29.7)" stroke="none" fill="#000" font-family="Arial" font-size="12" text-anchor="end"><tspan>61927</tspan></text></g><g fill="none" color="#000" stroke="currentColor"><path stroke="#000" d="M70.5 418v-9m0-390.9v9"/><text transform="translate(70.5 439.9)" stroke="none" fill="#000" font-family="Arial" font-size="12" text-anchor="middle"><tspan>0</tspan></text></g><g fill="none" color="#000" stroke="currentColor"><path stroke="#000" d="M125.5 418v-9m0-390.9v9"/><text transform="translate(125.5 439.9)" stroke="none" fill="#000" font-family="Arial" font-size="12" text-anchor="middle"><tspan>10</tspan></text></g><g fill="none" color="#000" stroke="currentColor"><path stroke="#000" d="M180.5 418v-9m0-390.9v9"/><text transform="translate(180.5 439.9)" stroke="none" fill="#000" font-family="Arial" font-size="12" text-anchor="middle"><tspan>20</tspan></text></g><g fill="none" color="#000" stroke="currentColor"><path stroke="#000" d="M235.5 418v-9m0-390.9v9"/><text transform="translate(235.5 439.9)" stroke="none" fill="#000" font-family="Arial" font-size="12" text-anchor="middle"><tspan>30</tspan></text></g><g fill="none" color="#000" stroke="currentColor"><path stroke="#000" d="M290.5 418v-9m0-390.9v9"/><text transform="translate(290.5 439.9)" stroke="none" fill="#000" font-family="Arial" font-size="12" text-anchor="middle"><tspan>40</tspan></text></g><g fill="none" color="#000" stroke="currentColor"><path stroke="#000" d="M345.5 418v-9m0-390.9v9"/><text transform="translate(345.5 439.9)" stroke="none" fill="#000" font-family="Arial" font-size="12" text-anchor="middle"><tspan>50</tspan></text></g><g fill="none" color="#000" stroke="currentColor"><path stroke="#000" d="M400.5 418v-9m0-390.9v9"/><text transform="translate(400.5 439.9)" stroke="none" fill="#000" font-family="Arial" font-size="12" text-anchor="middle"><tspan>60</tspan></text></g><g fill="none" color="#000" stroke="currentColor"><path stroke="#000" d="M455.5 418v-9m0-390.9v9"/><text transform="translate(455.5 439.9)" stroke="none" fill="#000" font-family="Arial" font-size="12" text-anchor="middle"><tspan>70</tspan></text></g><g fill="none" color="#000" stroke="currentColor"><path stroke="#000" d="M510.5 418v-9m0-390.9v9"/><text transform="translate(510.5 439.9)" stroke="none" fill="#000" font-family="Arial" font-size="12" text-anchor="middle"><tspan>80</tspan></text></g><g fill="none" color="#000" stroke="currentColor"><path stroke="#000" d="M565.5 418v-9m0-390.9v9"/><text transform="translate(565.5 439.9)" stroke="none" fill="#000" font-family="Arial" font-size="12" text-anchor="middle"><tspan>90</tspan></text></g><path stroke="#000" d="M70.5 18.1V418H615V18.1H70.5z" fill="none" color="#000"/><text transform="translate(283.9 457.9)" stroke="none" fill="#000" font-family="Arial" font-size="12" text-anchor="end" color="#000"><tspan>raw</tspan></text><path stroke="#9400D3" d="M292.2 454h42.2M70.5 73.9H76l5.5-48.1L87 73.9h5.5L98 410.3l5.5-336.4 5.5-48.1 5.5 48.1h5.5l5.5-48.1 5.5 384.5 5.5-288.4 5.5-48h5.5l5.5-48.1 5.5 48.1h5.5l5.5 336.4L175 73.9l5.5-48.1 5.5 48.1h5.5l5.5-48.1 5.5 384.5 5.5-288.4 5.5-48h5.5l5.5-48.1 5.5 48.1 5.5 48 5.5 288.4 5.5-336.4 5.5-48.1 5.5 48.1h5.5l5.5-48.1 5.5 384.5 5.5-288.4 5.5-48h5.5l5.5-48.1 5.5 48.1 5.5 336.4h5.5L318 73.9l5.5-48.1 5.5 48.1h5.5l5.5-48.1 5.5 384.5L351 73.9h11l5.5-48.1 5.5 48.1 5.5 336.4 5.5-288.4 5.5-48 5.5-48.1 5.5 48.1h5.5l5.5-48.1 5.5 384.5 5.5-336.4h11l5.5-48.1 5.5 48.1 5.5 336.4 5.5-336.4h5.5l5.5-48.1 5.5 48.1h5.5l5.5-48.1 5.5 384.5L494 73.9h11l5.5-48.1 5.5 48.1 5.5 336.4L527 73.9h5.5l5.5-48.1 5.5 48.1h5.5l5.5-48.1 5.5 384.5 5.5-336.4h11l5.5-48.1 5.5 48.1 5.5 336.4 5.5-336.4h5.5l5.5-48.1 5.5 48.1" fill="none" color="#000"/><text transform="translate(283.9 475.9)" stroke="none" fill="#000" font-family="Arial" font-size="12" text-anchor="end" color="#000"><tspan>score p10=2731008</tspan></text><path stroke="#009E73" d="M292.2 472h42.2" fill="none" color="#000"/><text transform="translate(508.7 457.9)" stroke="none" fill="#000" font-family="Arial" font-size="12" text-anchor="end" color="#000"><tspan>score median=4096000</tspan></text><path stroke="#56B4E9" d="M517 454h42.2" fill="none" color="#000"/><g fill="none" color="#000" stroke="currentColor"><path stroke="#000" d="M70.5 18.1V418H615V18.1H70.5z"/></g></svg>

<?xml version="1.0" encoding="utf-8"  standalone="no"?>
<svg 
 width="640" height="490"
 viewBox="0 0 640 490"
 xmlns="http://www.w3.org/2000/svg"
 xmlns:xlink="http://www.w3.org/1999/xlink"
>

<title>Gnuplot</title>
<desc>Produced by GNUPLOT 5.4 patchlevel 0 </desc>

<g id="gnuplot_canvas">

<rect x="0" y="0" width="640" height="490" fill="#ffffff"/>
<defs>

	<circle id='gpDot' r='0.5' stroke-width='0.5' stroke='currentColor'/>
	<path id='gpPt0' stroke-width='0.222' stroke='currentColor' d='M-1,0 h2 M0,-1 v2'/>
	<path id='gpPt1' stroke-width='0.222' stroke='currentColor' d='M-1,-1 L1,1 M1,-1 L-1,1'/>
	<path id='gpPt2' stroke-width='0.222' stroke='currentColor' d='M-1,0 L1,0 M0,-1 L0,1 M-1,-1 L1,1 M-1,1 L1,-1'/>
	<rect id='gpPt3' stroke-width='0.222' stroke='currentColor' x='-1' y='-1' width='2' height='2'/>
	<rect id='gpPt4' stroke-width='0.222' stroke='currentColor' fill='currentColor' x='-1' y='-1' width='2' height='2'/>
	<circle id='gpPt5' stroke-width='0.222' stroke='currentColor' cx='0' cy='0' r='1'/>
	<use xlink:href='#gpPt5' id='gpPt6' fill='currentColor' stroke='none'/>
	<path id='gpPt7' stroke-width='0.222' stroke='currentColor' d='M0,-1.33 L-1.33,0.67 L1.33,0.67 z'/>
	<use xlink:href='#gpPt7' id='gpPt8' fill='currentColor' stroke='none'/>
	<use xlink:href='#gpPt7' id='gpPt9' stroke='currentColor' transform='rotate(180)'/>
	<use xlink:href='#gpPt9' id='gpPt10' fill='currentColor' stroke='none'/>
	<use xlink:href='#gpPt3' id='gpPt11' stroke='currentColor' transform='rotate(45)'/>
	<use xlink:href='#gpPt11' id='gpPt12' fill='currentColor' stroke='none'/>
	<path id='gpPt13' stroke-width='0.222' stroke='currentColor' d='M0,1.330 L1.265,0.411 L0.782,-1.067 L-0.782,-1.076 L-1.265,0.411 z'/>
	<use xlink:href='#gpPt13' id='gpPt14' fill='currentColor' stroke='none'/>
	<filter id='textbox' filterUnits='objectBoundingBox' x='0' y='0' height='1' width='1'>
	  <feFlood flood-color='#FFFFFF' flood-opacity='1' result='bgnd'/>
	  <feComposite in='SourceGraphic' in2='bgnd' operator='atop'/>
	</filter>
	<filter id='greybox' filterUnits='objectBoundingBox' x='0' y='0' height='1' width='1'>
	  <feFlood flood-color='lightgrey' flood-opacity='1' result='grey'/>
	  <feComposite in='SourceGraphic' in2='grey' operator='atop'/>
	</filter>
</defs>
<g fill="none" color="#FFFFFF" stroke="black" stroke-width="1.00" stroke-linecap="butt" stroke-linejoin="miter">
</g>
<g fill="none" color="black" stroke="currentColor" stroke-width="1.00" stroke-linecap="butt" stroke-linejoin="miter">
	<path stroke='black'  d='M70.5,410.3 L79.5,410.3 M615.0,410.3 L606.0,410.3  '/>	<g transform="translate(62.2,414.2)" stroke="none" fill="black" font-family="Arial" font-size="12.00"  text-anchor="end">
		<text><tspan font-family="Arial" > 61919</tspan></text>
	</g>
</g>
<g fill="none" color="black" stroke="currentColor" stroke-width="1.00" stroke-linecap="butt" stroke-linejoin="miter">
	<path stroke='black'  d='M70.5,362.2 L79.5,362.2 M615.0,362.2 L606.0,362.2  '/>	<g transform="translate(62.2,366.1)" stroke="none" fill="black" font-family="Arial" font-size="12.00"  text-anchor="end">
		<text><tspan font-family="Arial" > 61920</tspan></text>
	</g>
</g>
<g fill="none" color="black" stroke="currentColor" stroke-width="1.00" stroke-linecap="butt" stroke-linejoin="miter">
	<path stroke='black'  d='M70.5,314.2 L79.5,314.2 M615.0,314.2 L606.0,314.2  '/>	<g transform="translate(62.2,318.1)" stroke="none" fill="black" font-family="Arial" font-size="12.00"  text-anchor="end">
		<text><tspan font-family="Arial" > 61921</tspan></text>
	</g>
</g>
<g fill="none" color="black" stroke="currentColor" stroke-width="1.00" stroke-linecap="butt" stroke-linejoin="miter">
	<path stroke='black'  d='M70.5,266.1 L79.5,266.1 M615.0,266.1 L606.0,266.1  '/>	<g transform="translate(62.2,270.0)" stroke="none" fill="black" font-family="Arial" font-size="12.00"  text-anchor="end">
		<text><tspan font-family="Arial" > 61922</tspan></text>
	</g>
</g>
<g fill="none" color="black" stroke="currentColor" stroke-width="1.00" stroke-linecap="butt" stroke-linejoin="miter">
	<path stroke='black'  d='M70.5,218.0 L79.5,218.0 M615.0,218.0 L606.0,218.0  '/>	<g transform="translate(62.2,221.9)" stroke="none" fill="black" font-family="Arial" font-size="12.00"  text-anchor="end">
		<text><tspan font-family="Arial" > 61923</tspan></text>
	</g>
</g>
<g fill="none" color="black" stroke="currentColor" stroke-width="1.00" stroke-linecap="butt" stroke-linejoin="miter">
	<path stroke='black'  d='M70.5,170.0 L79.5,170.0 M615.0,170.0 L606.0,170.0  '/>	<g transform="translate(62.2,173.9)" stroke="none" fill="black" font-family="Arial" font-size="12.00"  text-anchor="end">
		<text><tspan font-family="Arial" > 61924</tspan></text>
	</g>
</g>
<g fill="none" color="black" stroke="currentColor" stroke-width="1.00" stroke-linecap="butt" stroke-linejoin="miter">
	<path stroke='black'  d='M70.5,121.9 L79.5,121.9 M615.0,121.9 L606.0,121.9  '/>	<g transform="translate(62.2,125.8)" stroke="none" fill="black" font-family="Arial" font-size="12.00"  text-anchor="end">
		<text><tspan font-family="Arial" > 61925</tspan></text>
	</g>
</g>
<g fill="none" color="black" stroke="currentColor" stroke-width="1.00" stroke-linecap="butt" stroke-linejoin="miter">
	<path stroke='black'  d='M70.5,73.9 L79.5,73.9 M615.0,73.9 L606.0,73.9  '/>	<g transform="translate(62.2,77.8)" stroke="none" fill="black" font-family="Arial" font-size="12.00"  text-anchor="end">
		<text><tspan font-family="Arial" > 61926</tspan></text>
	</g>
</g>
<g fill="none" color="black" stroke="currentColor" stroke-width="1.00" stroke-linecap="butt" stroke-linejoin="miter">
	<path stroke='black'  d='M70.5,25.8 L79.5,25.8 M615.0,25.8 L606.0,25.8  '/>	<g transform="translate(62.2,29.7)" stroke="none" fill="black" font-family="Arial" font-size="12.00"  text-anchor="end">
		<text><tspan font-family="Arial" > 61927</tspan></text>
	</g>
</g>
<g fill="none" color="black" stroke="currentColor" stroke-width="1.00" stroke-linecap="butt" stroke-linejoin="miter">
	<path stroke='black'  d='M70.5,418.0 L70.5,409.0 M70.5,18.1 L70.5,27.1  '/>	<g transform="translate(70.5,439.9)" stroke="none" fill="black" font-family="Arial" font-size="12.00"  text-anchor="middle">
		<text><tspan font-family="Arial" > 0</tspan></text>
	</g>
</g>
<g fill="none" color="black" stroke="currentColor" stroke-width="1.00" stroke-linecap="butt" stroke-linejoin="miter">
	<path stroke='black'  d='M125.5,418.0 L125.5,409.0 M125.5,18.1 L125.5,27.1  '/>	<g transform="translate(125.5,439.9)" stroke="none" fill="black" font-family="Arial" font-size="12.00"  text-anchor="middle">
		<text><tspan font-family="Arial" > 10</tspan></text>
	</g>
</g>
<g fill="none" color="black" stroke="currentColor" stroke-width="1.00" stroke-linecap="butt" stroke-linejoin="miter">
	<path stroke='black'  d='M180.5,418.0 L180.5,409.0 M180.5,18.1 L180.5,27.1  '/>	<g transform="translate(180.5,439.9)" stroke="none" fill="black" font-family="Arial" font-size="12.00"  text-anchor="middle">
		<text><tspan font-family="Arial" > 20</tspan></text>
	</g>
</g>
<g fill="none" color="black" stroke="currentColor" stroke-width="1.00" stroke-linecap="butt" stroke-linejoin="miter">
	<path stroke='black'  d='M235.5,418.0 L235.5,409.0 M235.5,18.1 L235.5,27.1  '/>	<g transform="translate(235.5,439.9)" stroke="none" fill="black" font-family="Arial" font-size="12.00"  text-anchor="middle">
		<text><tspan font-family="Arial" > 30</tspan></text>
	</g>
</g>
<g fill="none" color="black" stroke="currentColor" stroke-width="1.00" stroke-linecap="butt" stroke-linejoin="miter">
	<path stroke='black'  d='M290.5,418.0 L290.5,409.0 M290.5,18.1 L290.5,27.1  '/>	<g transform="translate(290.5,439.9)" stroke="none" fill="black" font-family="Arial" font-size="12.00"  text-anchor="middle">
		<text><tspan font-family="Arial" > 40</tspan></text>
	</g>
</g>
<g fill="none" color="black" stroke="currentColor" stroke-width="1.00" stroke-linecap="butt" stroke-linejoin="miter">
	<path stroke='black'  d='M345.5,418.0 L345.5,409.0 M345.5,18.1 L345.5,27.1  '/>	<g transform="translate(345.5,439.9)" stroke="none" fill="black" font-family="Arial" font-size="12.00"  text-anchor="middle">
		<text><tspan font-family="Arial" > 50</tspan></text>
	</g>
</g>
<g fill="none" color="black" stroke="currentColor" stroke-width="1.00" stroke-linecap="butt" stroke-linejoin="miter">
	<path stroke='black'  d='M400.5,418.0 L400.5,409.0 M400.5,18.1 L400.5,27.1  '/>	<g transform="translate(400.5,439.9)" stroke="none" fill="black" font-family="Arial" font-size="12.00"  text-anchor="middle">
		<text><tspan font-family="Arial" > 60</tspan></text>
	</g>
</g>
<g fill="none" color="black" stroke="currentColor" stroke-width="1.00" stroke-linecap="butt" stroke-linejoin="miter">
	<path stroke='black'  d='M455.5,418.0 L455.5,409.0 M455.5,18.1 L455.5,27.1  '/>	<g transform="translate(455.5,439.9)" stroke="none" fill="black" font-family="Arial" font-size="12.00"  text-anchor="middle">
		<text><tspan font-family="Arial" > 70</tspan></text>
	</g>
</g>
<g fill="none" color="black" stroke="currentColor" stroke-width="1.00" stroke-linecap="butt" stroke-linejoin="miter">
	<path stroke='black'  d='M510.5,418.0 L510.5,409.0 M510.5,18.1 L510.5,27.1  '/>	<g transform="translate(510.5,439.9)" stroke="none" fill="black" font-family="Arial" font-size="12.00"  text-anchor="middle">
		<text><tspan font-family="Arial" > 80</tspan></text>
	</g>
</g>
<g fill="none" color="black" stroke="currentColor" stroke-width="1.00" stroke-linecap="butt" stroke-linejoin="miter">
	<path stroke='black'  d='M565.5,418.0 L565.5,409.0 M565.5,18.1 L565.5,27.1  '/>	<g transform="translate(565.5,439.9)" stroke="none" fill="black" font-family="Arial" font-size="12.00"  text-anchor="middle">
		<text><tspan font-family="Arial" > 90</tspan></text>
	</g>
</g>
<g fill="none" color="black" stroke="currentColor" stroke-width="1.00" stroke-linecap="butt" stroke-linejoin="miter">
</g>
<g fill="none" color="black" stroke="currentColor" stroke-width="1.00" stroke-linecap="butt" stroke-linejoin="miter">
	<path stroke='black'  d='M70.5,18.1 L70.5,418.0 L615.0,418.0 L615.0,18.1 L70.5,18.1 Z  '/></g>
<g fill="none" color="black" stroke="currentColor" stroke-width="1.00" stroke-linecap="butt" stroke-linejoin="miter">
</g>
	<g id="gnuplot_plot_1" ><title>raw</title>
<g fill="none" color="black" stroke="currentColor" stroke-width="1.00" stroke-linecap="butt" stroke-linejoin="miter">
	<g transform="translate(283.9,457.9)" stroke="none" fill="black" font-family="Arial" font-size="12.00"  text-anchor="end">
		<text><tspan font-family="Arial" >raw</tspan></text>
	</g>
</g>
<g fill="none" color="black" stroke="currentColor" stroke-width="1.00" stroke-linecap="butt" stroke-linejoin="miter">
	<path stroke='rgb(148,   0, 211)'  d='M292.2,454.0 L334.4,454.0 M70.5,73.9 L76.0,73.9 L81.5,25.8 L87.0,73.9 L92.5,73.9 L98.0,410.3
		L103.5,73.9 L109.0,25.8 L114.5,73.9 L120.0,73.9 L125.5,25.8 L131.0,410.3 L136.5,121.9 L142.0,73.9
		L147.5,73.9 L153.0,25.8 L158.5,73.9 L164.0,73.9 L169.5,410.3 L175.0,73.9 L180.5,25.8 L186.0,73.9
		L191.5,73.9 L197.0,25.8 L202.5,410.3 L208.0,121.9 L213.5,73.9 L219.0,73.9 L224.5,25.8 L230.0,73.9
		L235.5,121.9 L241.0,410.3 L246.5,73.9 L252.0,25.8 L257.5,73.9 L263.0,73.9 L268.5,25.8 L274.0,410.3
		L279.5,121.9 L285.0,73.9 L290.5,73.9 L296.0,25.8 L301.5,73.9 L307.0,410.3 L312.5,410.3 L318.0,73.9
		L323.5,25.8 L329.0,73.9 L334.5,73.9 L340.0,25.8 L345.5,410.3 L351.0,73.9 L356.5,73.9 L362.0,73.9
		L367.5,25.8 L373.0,73.9 L378.5,410.3 L384.0,121.9 L389.5,73.9 L395.0,25.8 L400.5,73.9 L406.0,73.9
		L411.5,25.8 L417.0,410.3 L422.5,73.9 L428.0,73.9 L433.5,73.9 L439.0,25.8 L444.5,73.9 L450.0,410.3
		L455.5,73.9 L461.0,73.9 L466.5,25.8 L472.0,73.9 L477.5,73.9 L483.0,25.8 L488.5,410.3 L494.0,73.9
		L499.5,73.9 L505.0,73.9 L510.5,25.8 L516.0,73.9 L521.5,410.3 L527.0,73.9 L532.5,73.9 L538.0,25.8
		L543.5,73.9 L549.0,73.9 L554.5,25.8 L560.0,410.3 L565.5,73.9 L571.0,73.9 L576.5,73.9 L582.0,25.8
		L587.5,73.9 L593.0,410.3 L598.5,73.9 L604.0,73.9 L609.5,25.8 L615.0,73.9  '/></g>
	</g>
	<g id="gnuplot_plot_2" ><title>score p10=2731008</title>
<g fill="none" color="black" stroke="currentColor" stroke-width="1.00" stroke-linecap="butt" stroke-linejoin="miter">
	<g transform="translate(283.9,475.9)" stroke="none" fill="black" font-family="Arial" font-size="12.00"  text-anchor="end">
		<text><tspan font-family="Arial" >score p10=2731008</tspan></text>
	</g>
</g>
<g fill="none" color="black" stroke="currentColor" stroke-width="1.00" stroke-linecap="butt" stroke-linejoin="miter">
	<path stroke='rgb(  0, 158, 115)'  d='M292.2,472.0 L334.4,472.0  '/></g>
	</g>
	<g id="gnuplot_plot_3" ><title>score median=4096000</title>
<g fill="none" color="black" stroke="currentColor" stroke-width="1.00" stroke-linecap="butt" stroke-linejoin="miter">
	<g transform="translate(508.7,457.9)" stroke="none" fill="black" font-family="Arial" font-size="12.00"  text-anchor="end">
		<text><tspan font-family="Arial" >score median=4096000</tspan></text>
	</g>
</g>
<g fill="none" color="black" stroke="currentColor" stroke-width="1.00" stroke-linecap="butt" stroke-linejoin="miter">
	<path stroke='rgb( 86, 180, 233)'  d='M517.0,454.0 L559.2,454.0  '/></g>
	</g>
<g fill="none" color="#FFFFFF" stroke="rgb( 86, 180, 233)" stroke-width="2.00" stroke-linecap="butt" stroke-linejoin="miter">
</g>
<g fill="none" color="black" stroke="currentColor" stroke-width="2.00" stroke-linecap="butt" stroke-linejoin="miter">
</g>
<g fill="none" color="black" stroke="black" stroke-width="1.00" stroke-linecap="butt" stroke-linejoin="miter">
</g>
<g fill="none" color="black" stroke="currentColor" stroke-width="1.00" stroke-linecap="butt" stroke-linejoin="miter">
	<path stroke='black'  d='M70.5,18.1 L70.5,418.0 L615.0,418.0 L615.0,18.1 L70.5,18.1 Z  '/></g>
<g fill="none" color="black" stroke="currentColor" stroke-width="1.00" stroke-linecap="butt" stroke-linejoin="miter">
</g>
</g>
</svg>
